Front/static/img/kkutu/intro/grac_all.svg

<svg width="111" height="128" viewBox="0 0 111 128" fill="none" xmlns="http://www.w3.org/2000/svg">
<path d="M104.55 3.66418H3.31238V110.295H104.55V3.66418Z" fill="#44A342"/>
<path d="M85.3985 103.465L73.1848 12.5947H32.5277L20.91 103.524L48.0831 103.348V96.6155H57.8541V103.455H85.3985V103.465ZM48.8159 79.0375L52.8513 40.8231L56.8965 79.0375H48.8159Z" fill="white"/>
<path d="M75.4419 84.9002V62.4269H62.7396V85.4962V94.6712H75.862H82.2815V84.9002H75.4419Z" fill="#9CA3AB"/>
<path d="M97.915 84.9002V62.4269H84.2357V85.4962V94.6712H97.6415H104.755V84.9002H97.915Z" fill="white"/>
<path d="M102.595 0H7.81679C4.03542 0 0 4.06473 0 7.87542V120.125C0 123.935 4.03542 128 7.81679 128H102.595C106.377 128 110.412 123.925 110.412 120.125V7.87542C110.412 4.06473 106.377 0 102.595 0ZM103.563 96.215C103.563 99.4785 100.934 102.126 97.7001 102.126H12.7121C9.47786 102.126 6.84947 99.4785 6.84947 96.215V12.5166C6.84947 9.25313 9.47786 6.60519 12.7121 6.60519H97.6904C100.925 6.60519 103.553 9.25313 103.553 12.5166V96.2052L103.563 96.215Z" fill="#231F20"/>
<path d="M21.8382 108.595V110.09H18.5453C18.5453 111.399 18.985 112.542 19.8742 113.5C20.5777 114.252 21.5353 114.878 22.7469 115.366L21.6037 116.558C20.7145 116.206 19.8937 115.806 19.1414 115.337C18.3206 114.829 17.705 114.321 17.2849 113.813C16.8843 114.311 16.2785 114.819 15.4577 115.337C14.7053 115.796 13.9041 116.206 13.0345 116.558L12.0085 115.366C13.1908 114.897 14.1191 114.272 14.7933 113.5C15.614 112.562 16.0244 111.419 16.0244 110.09H12.8977V108.595H21.8382ZM16.2394 120.017H26.4989V121.512H15.9463C15.1353 121.512 14.5588 121.395 14.207 121.16C13.8748 120.936 13.7087 120.555 13.7087 120.037V117.203H16.2296V120.007L16.2394 120.017ZM26.3817 118.053H23.851V113.021H21.0663V111.516H23.851V108.331H26.3817V118.063V118.053Z" fill="white"/>
<path d="M32.6644 109.552V108.253H35.1853V109.552H37.5792V111.038H35.1853V113.187C35.1853 114.79 35.4785 116.177 36.0745 117.359C36.563 118.346 37.2372 119.138 38.0873 119.734L36.5337 120.691C35.8888 120.242 35.3514 119.724 34.9508 119.138C34.4427 118.434 34.091 117.613 33.9053 116.685C33.6904 117.623 33.3191 118.454 32.7914 119.157C32.3322 119.753 31.7655 120.261 31.0717 120.701L29.694 119.743C30.5832 119.157 31.2769 118.376 31.7753 117.389C32.3713 116.236 32.6644 114.838 32.6644 113.197V111.047H30.3096V109.562H32.6644V109.552ZM36.3481 114.936V113.48H38.4098V108.321H40.9307V121.659H38.4098V114.926H36.3481V114.936ZM44.7804 121.668H42.2498V108.331H44.7804V121.668Z" fill="white"/>
<path d="M56.9062 110.08C57.6781 111.194 58.069 112.62 58.069 114.35C58.069 116.177 57.6781 117.672 56.9062 118.815C56.0855 120.066 54.9325 120.691 53.4571 120.691C51.9816 120.691 50.8091 120.066 49.9786 118.815C49.2165 117.672 48.8354 116.177 48.8354 114.35C48.8354 112.62 49.2165 111.194 49.9786 110.08C50.8189 108.859 51.9816 108.253 53.4571 108.253C54.9325 108.253 56.0757 108.868 56.9062 110.08ZM51.8742 111.077C51.542 111.917 51.3758 113.002 51.3758 114.34C51.3758 115.786 51.542 116.939 51.8742 117.819C52.2357 118.757 52.7633 119.235 53.4473 119.235C54.1313 119.235 54.6394 118.766 55.0009 117.819C55.3429 116.939 55.509 115.786 55.509 114.34C55.509 113.011 55.3331 111.917 55.0009 111.077C54.6198 110.158 54.102 109.709 53.4473 109.709C52.7926 109.709 52.2552 110.168 51.8742 111.077ZM62.6809 121.659H60.1502V108.321H62.6809V121.659Z" fill="white"/>
<path d="M68.0256 112.132C67.6934 111.78 67.5273 111.409 67.5273 111.008C67.5273 110.236 68.0745 109.601 69.1688 109.074C70.3706 108.517 72.0317 108.243 74.1325 108.243C76.2332 108.243 77.8845 108.517 79.0961 109.074C80.2003 109.591 80.7572 110.236 80.7572 111.008C80.7572 111.399 80.5813 111.78 80.2491 112.132C79.8876 112.493 79.3697 112.806 78.7151 113.07V114.496H81.5291V116.011H66.7456V114.496H69.5303V113.07C68.8659 112.806 68.3676 112.484 68.0256 112.132ZM78.9007 117.613C79.9755 118.102 80.5032 118.708 80.5032 119.431C80.5032 120.154 79.9658 120.73 78.9007 121.219C77.7184 121.766 76.1258 122.04 74.1227 122.04C72.1197 122.04 70.5074 121.766 69.3251 121.219C68.2699 120.73 67.7423 120.134 67.7423 119.431C67.7423 118.727 68.2699 118.102 69.3251 117.613C70.5074 117.066 72.1099 116.793 74.1227 116.793C76.1355 116.793 77.7184 117.066 78.9007 117.613ZM71.1328 110.148C70.4684 110.373 70.1459 110.656 70.1459 111.008C70.1459 111.36 70.4781 111.634 71.1328 111.849C71.8461 112.093 72.8427 112.21 74.1032 112.21C75.3636 112.21 76.3603 112.093 77.0931 111.849C77.7477 111.624 78.08 111.34 78.08 111.008C78.08 110.676 77.7477 110.373 77.0931 110.148C76.3603 109.914 75.3734 109.797 74.1032 109.797C72.8329 109.797 71.8461 109.914 71.1328 110.148ZM71.2207 118.669C70.5856 118.874 70.2632 119.118 70.2632 119.421C70.2632 119.724 70.5758 119.968 71.2207 120.173C71.934 120.398 72.9111 120.515 74.1422 120.515C75.3734 120.515 76.2919 120.398 76.9954 120.173C77.6403 119.968 77.9725 119.724 77.9725 119.421C77.9725 119.118 77.65 118.874 76.9954 118.669C76.2919 118.444 75.3441 118.336 74.1422 118.336C72.9404 118.336 71.9438 118.444 71.2207 118.669ZM76.1844 114.506V113.646C75.8913 113.685 75.559 113.715 75.2073 113.744C74.8848 113.764 74.5331 113.773 74.1325 113.773C73.7319 113.773 73.3606 113.773 73.0381 113.744C72.6766 113.715 72.3444 113.685 72.0513 113.646V114.506H76.1844Z" fill="white"/>
<path d="M93.0687 108.595V112.728C93.0687 114.702 92.4336 116.363 91.1536 117.701C89.9713 118.933 88.2125 119.919 85.8773 120.682L84.8708 119.548C86.5808 118.952 87.8999 118.2 88.8476 117.281C89.9908 116.177 90.5576 114.858 90.5576 113.304V110.1H85.2812V108.585H93.0687V108.595ZM98.7359 108.321V113.725H100.465V115.249H98.7359V121.659H96.2052V108.321H98.7359Z" fill="white"/>
</svg>

<svg fill="none" viewBox="0 0 111 128"><path fill="#44A342" d="M104.55 3.664H3.312v106.631H104.55V3.665z"/><path fill="#fff" d="M85.398 103.465l-12.213-90.87H32.528L20.91 103.524l27.173-.176v-6.733h9.771v6.84h27.544v.01zM48.816 79.037l4.035-38.214 4.046 38.214h-8.081z"/><path fill="#9CA3AB" d="M75.442 84.9V62.427H62.74V94.67h19.542V84.9h-6.84z"/><path fill="#fff" d="M97.915 84.9V62.427h-13.68V94.67h20.52V84.9h-6.84z"/><path fill="#231F20" d="M102.595 0H7.817C4.035 0 0 4.065 0 7.875v112.25C0 123.935 4.035 128 7.817 128h94.778c3.782 0 7.817-4.075 7.817-7.875V7.875c0-3.81-4.035-7.875-7.817-7.875zm.968 96.215c0 3.263-2.629 5.911-5.863 5.911H12.712c-3.234 0-5.863-2.648-5.863-5.911V12.517c0-3.264 2.629-5.912 5.863-5.912H97.69c3.235 0 5.863 2.648 5.863 5.912v83.688l.01.01z"/><path fill="#fff" d="M21.838 108.595v1.495h-3.293c0 1.309.44 2.452 1.33 3.41.703.752 1.66 1.378 2.872 1.866l-1.143 1.192a15.23 15.23 0 01-2.463-1.221c-.82-.508-1.436-1.016-1.856-1.524-.4.498-1.006 1.006-1.827 1.524-.753.459-1.554.869-2.424 1.221l-1.026-1.192c1.183-.469 2.111-1.094 2.785-1.866.821-.938 1.231-2.081 1.231-3.41h-3.126v-1.495h8.94zm-5.599 11.422H26.5v1.495H15.946c-.81 0-1.387-.117-1.739-.352-.332-.224-.498-.605-.498-1.123v-2.834h2.52v2.804l.01.01zm10.143-1.964H23.85v-5.032h-2.785v-1.505h2.785v-3.185h2.53v9.732-.01zm6.282-8.501v-1.299h2.521v1.299h2.394v1.486h-2.394v2.149c0 1.603.293 2.99.89 4.172.488.987 1.162 1.779 2.012 2.375l-1.553.957c-.645-.449-1.183-.967-1.583-1.553a6.235 6.235 0 01-1.046-2.453c-.215.938-.586 1.769-1.114 2.472a6.574 6.574 0 01-1.72 1.544l-1.377-.958a5.998 5.998 0 002.081-2.354c.596-1.153.89-2.551.89-4.192v-2.15H30.31v-1.485h2.354v-.01zm3.684 5.384v-1.456h2.062v-5.159h2.52v13.338h-2.52v-6.733h-2.062v.01zm8.432 6.732h-2.53v-13.337h2.53v13.337zm12.126-11.588c.772 1.114 1.163 2.54 1.163 4.27 0 1.827-.39 3.322-1.163 4.465-.82 1.251-1.974 1.876-3.449 1.876-1.475 0-2.648-.625-3.478-1.876-.762-1.143-1.144-2.638-1.144-4.465 0-1.73.382-3.156 1.144-4.27.84-1.221 2.003-1.827 3.478-1.827s2.619.615 3.45 1.827zm-5.032.997c-.332.84-.498 1.925-.498 3.263 0 1.446.166 2.599.498 3.479.362.938.89 1.416 1.573 1.416.684 0 1.192-.469 1.554-1.416.342-.88.508-2.033.508-3.479 0-1.329-.176-2.423-.508-3.263-.381-.919-.899-1.368-1.554-1.368-.654 0-1.192.459-1.573 1.368zm10.807 10.582h-2.53v-13.338h2.53v13.338zm5.345-9.527c-.333-.352-.499-.723-.499-1.124 0-.772.547-1.407 1.642-1.934 1.202-.557 2.863-.831 4.963-.831 2.101 0 3.752.274 4.964.831 1.104.517 1.661 1.162 1.661 1.934 0 .391-.176.772-.508 1.124-.361.361-.88.674-1.534.938v1.426h2.814v1.515H66.746v-1.515h2.784v-1.426c-.664-.264-1.162-.586-1.504-.938zm10.875 5.481c1.075.489 1.602 1.095 1.602 1.818 0 .723-.537 1.299-1.602 1.788-1.183.547-2.775.821-4.778.821-2.003 0-3.616-.274-4.798-.821-1.055-.489-1.583-1.085-1.583-1.788 0-.704.528-1.329 1.583-1.818 1.182-.547 2.785-.82 4.798-.82 2.012 0 3.595.273 4.778.82zm-7.768-7.465c-.665.225-.987.508-.987.86s.332.626.987.841c.713.244 1.71.361 2.97.361 1.26 0 2.257-.117 2.99-.361.655-.225.987-.509.987-.841 0-.332-.332-.635-.987-.86-.733-.234-1.72-.351-2.99-.351-1.27 0-2.257.117-2.97.351zm.088 8.521c-.635.205-.958.449-.958.752s.313.547.958.752c.713.225 1.69.342 2.921.342 1.231 0 2.15-.117 2.853-.342.645-.205.977-.449.977-.752s-.322-.547-.977-.752c-.703-.225-1.65-.333-2.853-.333-1.202 0-2.198.108-2.921.333zm4.963-4.163v-.86a20.31 20.31 0 01-.977.098c-.322.02-.674.029-1.075.029-.4 0-.771 0-1.094-.029a19.568 19.568 0 01-.987-.098v.86h4.133zm16.885-5.911v4.133c0 1.974-.635 3.635-1.915 4.973-1.183 1.232-2.941 2.218-5.277 2.981l-1.006-1.134c1.71-.596 3.029-1.348 3.977-2.267 1.143-1.104 1.71-2.423 1.71-3.977V110.1H85.28v-1.515h7.788v.01zm5.667-.274v5.404h1.729v1.524h-1.73v6.41h-2.53v-13.338h2.53z"/></svg>
